media/svgs/brands/gitter.svg

<svg xmlns="http://www.w3.org/2000/svg" viewBox="0 0 384 512"><!--! Font Awesome Free 7.0.0 by @fontawesome - https://fontawesome.com License - https://fontawesome.com/license/free (Icons: CC BY 4.0, Fonts: SIL OFL 1.1, Code: MIT License) Copyright 2025 Fonticons, Inc. --><path fill="currentColor" d="M66.4 322.5l-50.4 0 0-322.5 50.4 0 0 322.5zM166.9 76.1l-50.4 0 0 435.9 50.4 0 0-435.9zm100.6 0l-50.4 0 0 435.9 50.4 0 0-435.9zM368 76l-50.4 0 0 247 50.4 0 0-247z"/></svg>

<svg xmlns="http://www.w3.org/2000/svg" viewBox="0 0 384 512"><!--! Font Awesome Free 6.7.1 by @fontawesome - https://fontawesome.com License - https://fontawesome.com/license/free (Icons: CC BY 4.0, Fonts: SIL OFL 1.1, Code: MIT License) Copyright 2024 Fonticons, Inc. --><path d="M66.4 322.5H16V0h50.4v322.5zM166.9 76.1h-50.4V512h50.4V76.1zm100.6 0h-50.4V512h50.4V76.1zM368 76h-50.4v247H368V76z"/></svg>
